svg/question-circle.svg

<svg xmlns="http://www.w3.org/2000/svg" width="24" height="24" viewBox="0 0 24 24">
	<g fill="none" stroke="currentColor" stroke-width="2" stroke-linecap="round">
		<path d="M12 3C16.9706 3 21 7.02944 21 12C21 16.9706 16.9706 21 12 21C7.02944 21 3 16.9706 3 12C3 7.02944 7.02944 3 12 3Z" stroke-dasharray="60" stroke-dashoffset="60">
			<animate attributeName="stroke-dashoffset" values="60;0" dur="0.5s" fill="freeze" />
		</path>
		<path d="M8.99999 10C8.99999 8.34315 10.3431 7 12 7C13.6569 7 15 8.34315 15 10C15 10.9814 14.5288 11.8527 13.8003 12.4C13.0718 12.9473 12.5 13 12 14" stroke-dasharray="20" stroke-dashoffset="20">
			<animate attributeName="stroke-dashoffset" values="20;0" begin="0.6s" dur="0.4s" fill="freeze" />
		</path>
	</g>
	<circle cx="12" cy="17" r="1" fill="currentColor" fill-opacity="0">
		<animate attributeName="fill-opacity" values="0;1" begin="1s" dur="0.2s" fill="freeze" />
	</circle>
</svg>

<svg xmlns="http://www.w3.org/2000/svg" width="24" height="24" viewBox="0 0 24 24">
	<g fill="none" stroke="currentColor" stroke-width="2" stroke-linecap="round" stroke-linejoin="round">
		<path d="M12 3c4.97 0 9 4.03 9 9c0 4.97 -4.03 9 -9 9c-4.97 0 -9 -4.03 -9 -9c0 -4.97 4.03 -9 9 -9Z" stroke-dasharray="64" stroke-dashoffset="64">
			<animate attributeName="stroke-dashoffset" values="64;0" dur="0.6s" fill="freeze" />
		</path>
		<path d="M9 10c0 -1.66 1.34 -3 3 -3c1.66 0 3 1.34 3 3c0 0.98 -0.47 1.85 -1.2 2.4c-0.73 0.55 -1.3 0.6 -1.8 1.6" stroke-dasharray="16" stroke-dashoffset="16">
			<animate attributeName="stroke-dashoffset" values="16;0" begin="0.6s" dur="0.2s" fill="freeze" />
		</path>
		<path d="M12 17v0.01" stroke-dasharray="4" stroke-dashoffset="4">
			<animate attributeName="stroke-dashoffset" values="4;0" begin="0.8s" dur="0.2s" fill="freeze" />
		</path>
	</g>
</svg>
